X:12
T:Westralian Wildflower Waltz
T:1920 Perth, Western Australia
C:Frederick Barwick (1874-1944)
C:Geraldton, Western Australia
S:nla.obj-166353901
L:1/8
M:3/4
I:linebreak $
K:Gmaj
[I:MIDI=program 59]D2^C3D | D4C2 | C2B,3C | C4B,2 | G2F2E2 | $
A,3B,C2 | E2F3E | E3_B,=B,2 | D2^C3D | D4C2 | $
C2B,3C | C4B,2 | G2F2E2 | D3ED2 | B2D2A2 |  [1G4D2 :|  [2G4FE :|  [3G4G2|]



